src/assets/svg/icons/fa/nuevos/classic/light/objects-align-bottom classic light.svg

<svg xmlns="http://www.w3.org/2000/svg" viewBox="0 0 512 512"><!--! Font Awesome Pro 6.4.0 by @fontawesome - https://fontawesome.com License - https://fontawesome.com/license (Commercial License) Copyright 2023 Fonticons, Inc. --><path d="M16 512c-8.8 0-16-7.2-16-16s7.2-16 16-16l480 0c8.8 0 16 7.2 16 16s-7.2 16-16 16L16 512zM176 352c8.8 0 16-7.2 16-16l0-288c0-8.8-7.2-16-16-16H112c-8.8 0-16 7.2-16 16l0 288c0 8.8 7.2 16 16 16h64zm-64 32c-26.5 0-48-21.5-48-48L64 48C64 21.5 85.5 0 112 0h64c26.5 0 48 21.5 48 48l0 288c0 26.5-21.5 48-48 48H112zm288-32c8.8 0 16-7.2 16-16l0-160c0-8.8-7.2-16-16-16H336c-8.8 0-16 7.2-16 16l0 160c0 8.8 7.2 16 16 16h64zm-64 32c-26.5 0-48-21.5-48-48l0-160c0-26.5 21.5-48 48-48h64c26.5 0 48 21.5 48 48l0 160c0 26.5-21.5 48-48 48H336z"/></svg>

<svg xmlns="http://www.w3.org/2000/svg" viewBox="0 0 512 512"><path d="M16 512C7.164 512 0 504.8 0 496C0 487.2 7.164 480 16 480H496C504.8 480 512 487.2 512 496C512 504.8 504.8 512 496 512H16zM112 384C85.49 384 64 362.5 64 336V48C64 21.49 85.49 0 112 0H176C202.5 0 224 21.49 224 48V336C224 362.5 202.5 384 176 384H112zM192 336V48C192 39.16 184.8 32 176 32H112C103.2 32 96 39.16 96 48V336C96 344.8 103.2 352 112 352H176C184.8 352 192 344.8 192 336zM336 384C309.5 384 288 362.5 288 336V176C288 149.5 309.5 128 336 128H400C426.5 128 448 149.5 448 176V336C448 362.5 426.5 384 400 384H336zM416 336V176C416 167.2 408.8 160 400 160H336C327.2 160 320 167.2 320 176V336C320 344.8 327.2 352 336 352H400C408.8 352 416 344.8 416 336z"/></svg>
